src/assets/flags/cd.svg

<?xml version="1.0" encoding="UTF-8"?>
<svg xmlns="http://www.w3.org/2000/svg" xmlns:xlink="http://www.w3.org/1999/xlink" width="25px" height="px" viewBox="0 0 25 19" version="1.1">
<g id="surface1">
<rect x="0" y="0" width="25" height="19" style="fill:rgb(0%,49.803922%,100%);fill-opacity:1;stroke:none;"/>
<path style=" stroke:none;fill-rule:nonzero;fill:rgb(96.862745%,83.92157%,9.411765%);fill-opacity:1;" d="M 1.125 3.800781 L 3.75 3.800781 L 4.5625 1.140625 L 5.375 3.800781 L 8 3.800781 L 5.875 5.445312 L 6.6875 8.105469 L 4.5625 6.460938 L 2.4375 8.105469 L 3.25 5.445312 Z M 23.4375 0 L 0 14.25 L 0 19 L 1.5625 19 L 25 4.75 L 25 0 Z M 23.4375 0 "/>
<path style=" stroke:none;fill-rule:nonzero;fill:rgb(80.784315%,6.27451%,12.941177%);fill-opacity:1;" d="M 25 0 L 0 15.199219 L 0 19 L 25 3.800781 Z M 25 0 "/>
</g>
</svg>

<svg xmlns="http://www.w3.org/2000/svg" width="25" height="px" viewBox="0 0 25 19"><path d="M0 0h25v19H0z" style="fill:#007fff;fill-opacity:1;stroke:none"/><path d="M1.125 3.8H3.75l.813-2.66.812 2.66H8L5.875 5.446l.813 2.66-2.125-1.644-2.125 1.644.812-2.66ZM23.438 0 0 14.25V19h1.563L25 4.75V0Zm0 0" style="stroke:none;fill-rule:nonzero;fill:#f7d618;fill-opacity:1"/><path d="M25 0 0 15.2V19L25 3.8Zm0 0" style="stroke:none;fill-rule:nonzero;fill:#ce1021;fill-opacity:1"/></svg>
